icons/header3.svg

<?xml version="1.0" encoding="UTF-8" standalone="no"?>
<svg width="24px" height="24px" viewBox="0 0 24 24" version="1.1" xmlns="http://www.w3.org/2000/svg" xmlns:xlink="http://www.w3.org/1999/xlink">
    <!-- Generator: Sketch 40.1 (33804) - http://www.bohemiancoding.com/sketch -->
    <title>header3</title>
    <desc>Created with Sketch.</desc>
    <defs></defs>
    <g id="Page-1" stroke="none" stroke-width="1" fill="none" fill-rule="evenodd">
        <g id="header3" fill="#777777">
            <path d="M6.05418925,12.9446992 L6.05418925,17.7533695 L4,17.7533695 L4,7 L6.05418925,7 L6.05418925,11.310685 L9.88245102,11.310685 L9.88245102,7 L11.9522023,7 L11.9522023,17.7533695 L9.88245102,17.7533695 L9.88245102,12.9446992 L6.05418925,12.9446992 Z M17.8324302,8.92302348 C18.2637232,9.12755417 18.5882996,9.40322183 18.8061692,9.75003474 C19.0240389,10.0968476 19.1329721,10.4792254 19.1329721,10.8971794 C19.1329721,11.4396303 18.9773532,11.890925 18.6661109,12.2510768 C18.3548685,12.6112287 17.9280283,12.862442 17.3855773,13.0047242 C17.9813841,13.05808 18.4704719,13.2715001 18.8528554,13.644991 C19.2352388,14.0184818 19.4264277,14.5342471 19.4264277,15.1923023 C19.4264277,15.7080754 19.2952632,16.1749319 19.0329304,16.5928859 C18.7705975,17.0108399 18.3948892,17.3420858 17.9057941,17.5866333 C17.416699,17.8311809 16.8386861,17.9534528 16.1717382,17.9534528 C14.9445541,17.9534528 13.975271,17.5221663 13.2638599,16.6595804 L14.237599,15.7391969 C14.5043782,16.0415466 14.7889383,16.2638592 15.091288,16.4061414 C15.3936377,16.5484237 15.7226604,16.6195637 16.078366,16.6195637 C16.5585685,16.6195637 16.9431693,16.483953 17.2321801,16.2127275 C17.5211908,15.941502 17.665694,15.5746862 17.665694,15.112269 C17.665694,14.596496 17.5300833,14.227457 17.2588579,14.005141 C16.9876324,13.7828251 16.5852465,13.6716688 16.0516882,13.6716688 L15.344727,13.6716688 L15.5448103,12.4578297 L16.0250104,12.4578297 C16.4607497,12.4578297 16.8097805,12.3377808 17.0721134,12.0976796 C17.3344462,11.8575783 17.4656107,11.5241094 17.4656107,11.0972627 C17.4656107,10.7326646 17.3455619,10.4458813 17.1054606,10.2369043 C16.8653594,10.0279273 16.5452292,9.92344032 16.1450604,9.92344032 C15.7982475,9.92344032 15.4825636,9.98791099 15.1979992,10.1168542 C14.9134347,10.2457975 14.6288746,10.4436557 14.3443101,10.7104349 L13.4772822,9.76337363 C14.2865123,8.99860671 15.2246716,8.61622898 16.2917882,8.61622898 C16.887595,8.61622898 17.4011372,8.71849279 17.8324302,8.92302348 L17.8324302,8.92302348 Z" id="H3"></path>
        </g>
    </g>
</svg>

<svg xmlns="http://www.w3.org/2000/svg" viewBox="0 0 24 24">
  <path fill-rule="evenodd" d="M6.054 12.945v4.808H4V7h2.054v4.31h3.828V7h2.07v10.753h-2.07v-4.808H6.054zm11.778-4.022c.432.205.756.48.974.827.218.347.327.73.327 1.147 0 .543-.156.994-.467 1.354-.31.36-.738.612-1.28.755.595.053 1.084.267 1.467.64.382.373.573.89.573 1.547 0 .516-.13.983-.393 1.4-.262.42-.638.75-1.127.995-.49.244-1.067.366-1.734.366-1.227 0-2.197-.43-2.908-1.293l.974-.92c.266.302.55.524.853.666.304.142.633.214.988.214.48 0 .865-.136 1.154-.407.29-.27.434-.638.434-1.1 0-.517-.136-.886-.407-1.108-.272-.222-.675-.333-1.208-.333h-.707l.2-1.214h.48c.436 0 .785-.12 1.047-.36.262-.24.394-.574.394-1 0-.365-.12-.652-.36-.86-.24-.21-.56-.315-.96-.315-.348 0-.663.065-.948.194-.285.13-.57.327-.854.593l-.867-.947c.81-.764 1.748-1.147 2.815-1.147.596 0 1.11.102 1.54.307z"/>
</svg>
